X:13017
T:Moll In the Wad
T:Moll in the Wood
R:Jig
C:Trad. O'Neill's 1850
O:Ireland
M:6/8
L:1/8
Q:1/8=220
K:DMix
c|"Em"BAB G2 F|E2 F G2 A|BAB GAB|"D"AFD D2 c|
"Em"BAB G2 F|E2 F G2 A|"G" BGB dcB|"D" AFD D2:|
|:c|"G" BGB d2 c|BGB d2 c|BGB dcB|"D" ecA A2 c|
"G"BGB def|"Em" gfe dcB|"C" cec "G"BdB|"D"AFD D2:|

